X:1
T:Quasi adagio
T:32-Andante 
T:Béla Bartók Revised and Arranged by the Composer, January 1945 
T:Book 1 (after Hungarian Folksongs)
T:For Children Nr 32 , Sz 42
C:Bela bartok
%%score { ( 1 4 ) | ( 2 3 ) }
L:1/8
Q:1/4=104
M:4/4
K:Ab
V:1 treble nm="Piano"
V:4 treble 
V:2 bass 
V:3 bass 
V:1
"^Andante," z8 | z8 | !tenuto!!1!F2 (!1!F2 !5!f2) !5!f2 | !5!f !3!c3 B4 | %4
 (!3!c3 !5!f c"_dim." A3) | (!4!c B3 !1!F4) | (!4!c!p! !4!c3 B2 A2) | (c B3 !1!F4) | %8
!mf! !2!E!1!E !tenuto!!2!E2 !1!!4![=DA]([DA]!1!!5![_DA])[DA] | %9
 !>!!1!!3![CF] [CF]3 !1!!3![DF]4({AGF} | %10
!mf! !^!!1!!2![CE])[CE] !tenuto![CE]2!<(! !1!!4![=DA]([DA]!2!!5![=EB])[EB]!<)! | %11
!f! !1!!2!!5![=A,CF] [A,CF]3 [A,CF]4 | z8 | z8 | !1!F2 (!1!F2 !5!f2)!<(! !3!f2({=efg} | %15
 !^!f!<)! !1!c3) !2!B4 |!mf! (c3 f c !2!A3) | (!4!c B3) !1!F4 |!mp! (!4!c !4!c3 B2 A2) | %19
 (c B3 !1!F4) |!p! !2!E!1!E !2!E2 !4!A(!3!A!4!B)!3!B |"_cresc. molto" !1!F !2!F3 !1!F4({!4!AGF} | %22
 !1!E)!2!E !1!E2 !3!A(!3!A!4!B)!3!B |!f! !1!F !2!F3 !1!F4 | z8 | z6 x2({!2!=efg} | %26
[M:3/2] !>!f !1!c3 !2!B6) z2 |[M:4/4] z2 z (!5!f !3!c !2!A3) | (!4!c B3 F4) | z8 | z8 |] %31
V:2
 z2!p!!ped!!<(! (!2
4
![F,=A,]2 F,,2) ([F,A,]2 | %1
 F,,2)!ped-up!!ped! ([F,_A,]2 F,,2)!ped-up!!ped! ([F,=A,]2!<)! | %2
!mf!!<(! F,,2)!ped-up!!ped! [F,_A,]2 F,,2!ped-up!!ped! !2!!1![G,B,]2 | %3
 F,,2!<)!!ped-up!!ped!!>(! !2!!1![A,C]2 F,,2!ped-up!!ped! !3!!1![G,D]2!>)!!ped-up! | %4
!ped! F,,2 (!2!C4 D2)!ped-up! |!ped! B,,,2 !1!=D6- | D2 =D6!ped-up! | %7
!ped! _D,,2!<(! (!4!!2![F,A,]4 [G,B,]2)!ped-up!!<)! | %8
!ped! C,,2 !3!!1![E,A,]2 B,,,2!ped-up!!ped! !2!!1![F,G,]2!ped-up! | %9
 !>!!4!!2![F,=A,] [F,A,]3!<(! !3!!1![G,B,]4!<)! | %10
 !^!!2!A,!1!A, !tenuto!!2!A,2 !3!!1![_F,A,]([F,A,-] [_D,A,]2) |!ped! !1!F,2 F,,6!ped-up! | %12
 z2!mf!!ped!!<(! (!1
2
![F,=A,]2 =D,,2)!ped-up!!ped! (!2!!1![F,^G,]2 | %13
 =D,,2)!ped-up!!ped! ([F,=A,]2 D,,2)!ped-up!!ped! ([F,^G,]2!<)! | %14
!f! =D,,2)!ped-up!!ped! [F,=A,]2 D,,2!ped-up!!ped! !2!!1![F,B,]2 | %15
 =D,,2!ped-up! !3!!1![F,C]2!ped! D,,2 !4!!1![F,=D]2!ped-up! | %16
!ped! =D,,2 !2!!1![F,G,]2!ped-up!!ped! D,,2 !3!!2![F,A,]2!ped-up! | %17
!ped! =D,,2 !2!!1![F,B,]2!ped-up!!ped! D,,2 !4!!2!!1![F,A,C]2!ped-up! | %18
!ped! =D,,2 !2!!1![F,G,]2!ped-up!!ped! D,,2 !3!!2![F,A,]2!ped-up! | %19
!ped! _D,,2 !4!!1![=E,B,]2!ped-up!!ped! D,,2 !2!!1![F,A,C]2!ped-up! | %20
 z2 .[D,F,_C]2 z2 .!4!!2!!1![_G,B,=E]2 | z2 .!5!!3!!1![F,=A,C]2 z2 .!4!!2!!1![G,B,D]2 | %22
!ped! A,,,2 !2!!1![A,_C]2!ped-up!!ped! _B,,,2 !2!!1![=E,A,]2!ped-up! | %23
!ped! F,,2 !4!!1![F,=A,C]6!ped-up! | %24
 z2!p!!ped! (!1
2
![_F,_A,]2 _D,,2)!ped-up!!ped! (!2!!1![F,G,]2 | %25
 D,,2)!ped-up!!ped! ([_F,A,]2 D,,2)!ped-up!!pp!!ped! [=E,G,]2!ped-up! | %26
[M:3/2]!ped! D,,2 !2!!1![F,A,]2!ped-up!!ped! D,,2 !2!!1![G,B,]2!ped-up!!ped! D,,2 !2!!1![A,C]2!ped-up! | %27
[M:4/4]!ped! D,,2 !2!!1![=E,G,]2!ped-up!!ped! D,,2 !2!!1![F,A,]2!ped-up! | %28
!ped! D,,2 !2!!1![G,B,]2!ped-up!!ped! D,,2 !3!!1![A,C]2- | [A,C]2!ped-up!!ped! [A,C]4 [A,C]2- | %30
 [A,C]8!ped-up! |] %31
V:3
 x8 | x8 | x8 | x8 | x2 !4!A,6 | x2 !3!A,6- | A,2 A,6 | x8 | x8 | x8 | x8 | x8 | x8 | x8 | x8 | %15
 x8 | x8 | x8 | x8 | x8 | x8 | x8 | x8 | x8 | x8 | x8 |[M:3/2] x12 |[M:4/4] x8 | x8 | x8 | x8 |] %31
V:4
 x8 | x8 | x8 | x8 | x8 | x8 | x8 | x8 | x8 | x8 | x8 | x8 | x8 | x8 | x8 | x8 | x8 | x8 | x8 | %19
 x8 | x8 | x8 | x2 (E4 !1!=D2) | x8 | x8 | x8 |[M:3/2] x12 |[M:4/4] x8 | x8 | x8 | x8 |] %31

